X: 211
T: The Russian Dance
%O: 1795
%R: waltz
Z: 2018 John Chambers <jc:trillian.mit.edu>
B: Wm. Campbell "10th Book of New and Favorite Country Dances, Strathspey Reels" 1795 p.21
F: https://archive.org/details/campbellstenthbo00camp
M: 3/8
L: 1/16
K: Bb
% - - - - - - - - - - - - - - - - - - - - - - - - -
% Voice 1 arranged for small-scale proofreading
V: 1 staves=2
F2 |\
BdfecA | BdfecA | Bdfbag | f4f2 | ^fgfgde | (=Bc)(Bc)(de) | f^fgedc | B2A2F2 |
(Bd)(fe)(cA) | BdfecA | Bdfbag | f4f2 | ^fgfgde | =BcBcde | g^fgecA | B4 |]
F2 |\
ABcAFA | BcdBFB | cdecAc | d2fdB2 | ABcAFA | BcdBFB | cdecAc | B4 |]
f2 |\
f4b2 | f4d2 | c2ecA2 | B2B2f2 | f4b2 | f4d2 | c2ecA2 | B4 |]
% - - - - - - - - - - - - - - - - - - - - - - - - -
% Voice 1 preserves the original staff layout
V: 2 clef=bass middle=d
f2 |\
B4f2 | B4f2 | B4B2 | Bbfbdf |\
B4B2 | e4e2 | d2e2=e2 | fgf_edc |\
B4f2 | B4f2 |
B4B2 | fbdfBd |\
e4e2 | d4B2 | B2e2f2 | B2b2 |]\
z2 | f4f2 | f4f2 | f4f2 | B2b2B2 |
f4e2 | d4B2 | f4F2 | B4 |]\
B2 |\
Bdfbfd | Bdfbfd | e2f2F2 | Bbd'bfd |\
Bdfbfd | Bdfbfd | ec f2F2 | B4 |]
% - - - - - - - - - - - - - - - - - - - - - - - - -
%%begintext align
%% The 1st Gent turn the 2d Lady .|. the 1st Lady turn
%% 2d Gent  Lead down the middle up again & Allemande
%% :|: hands 6 round lead out side with your partner.
%%endtext
% - - - - - - - - - - - - - - - - - - - - - - - - -

%%sep 1 1 500
%%sep 1 1 500

